packages/icons/web/package_large.svg

<svg width="24" height="24" viewBox="0 0 24 24" fill="none" xmlns="http://www.w3.org/2000/svg">
<path d="M19.7614 7.50012C19.9174 7.77346 19.9997 8.08354 20 8.39926V15.6007C19.9997 15.9165 19.9174 16.2265 19.7614 16.4999C19.6054 16.7732 19.3811 17.0002 19.1111 17.1581L12.8889 20.7588C12.6186 20.9168 12.3121 21 12 21M19.7614 7.50012C19.6054 7.22678 19.3811 6.9998 19.1111 6.84194L16 5.04157M19.7614 7.50012L12 12M4.23863 7.50012C4.39465 7.22678 4.6189 6.9998 4.88889 6.84194L11.1111 3.2412C11.3814 3.08319 11.6879 3 12 3C12.3121 3 12.6186 3.08319 12.8889 3.2412L16 5.04157M4.23863 7.50012C4.08262 7.77346 4.00032 8.08354 4 8.39926V15.6007C4.00032 15.9165 4.08262 16.2265 4.23863 16.4999C4.39465 16.7732 4.6189 17.0002 4.88889 17.1581L11.1111 20.7588C11.3814 20.9168 11.6879 21 12 21M4.23863 7.50012L8 9.75M12 21V12M12 12L8 9.75M8 9.75L16 5.04157" stroke="#212933" stroke-width="2" stroke-linecap="round" stroke-linejoin="round"/>
</svg>

<svg width="24" height="24" fill="none" xmlns="http://www.w3.org/2000/svg">
    <path d="M19.761 7.5c.156.273.239.584.239.9v7.2c0 .316-.083.627-.239.9-.156.273-.38.5-.65.658l-6.222 3.6A1.76 1.76 0 0112 21m7.761-13.5a1.79 1.79 0 00-.65-.658L16 5.042M19.761 7.5L12 12M4.239 7.5c.156-.273.38-.5.65-.658l6.222-3.6a1.76 1.76 0 011.778 0L16 5.041M4.239 7.5A1.818 1.818 0 004 8.4v7.2c0 .316.083.627.239.9.156.273.38.5.65.658l6.222 3.6c.27.159.577.242.889.242M4.239 7.5L8 9.75M12 21v-9m0 0L8 9.75m0 0l8-4.708" stroke="currentColor" stroke-width="2" stroke-linecap="round" stroke-linejoin="round"/>
</svg>
